X: 21576
T: Kilkenny
R: jig
M: 6/8
K: Adorian
|:cBA dcB|AEF GAB|cBA dcB|AEF G2A|
cBA dcB|AEF GAB|c2e dBG|1 A3 A2B:|2 A3 Aef||
|:g3 agf|g2e edB|a2e a2e|a2e edB|
g3 agf|g2e edB|c2e dBG|1 A3 Aef:|2 A3 A3||

